icons/ticket-outline.svg

<svg xmlns="http://www.w3.org/2000/svg" width="24" height="24" viewBox="0 0 24 24">
  <path d="M20,4 L4,4 C2.34314575,4 1,5.34314575 1,7 L1,10 C1,10.5522847 1.44771525,11 2,11 L3,11 L3.11253483,11.0048111 C3.59452679,11.041054 4,11.4756765 4,12 L3.99518895,12.1125348 C3.95894602,12.5945268 3.52432346,13 3,13 L2,13 C1.44771525,13 1,13.4477153 1,14 L1,17 C1,18.6568542 2.34314575,20 4,20 L20,20 C21.6568542,20 23,18.6568542 23,17 L23,14 C23,13.4477153 22.5522847,13 22,13 L21,13 L20.8874652,12.9951889 C20.4054732,12.958946 20,12.5243235 20,12 L20.0048111,11.8874652 C20.041054,11.4054732 20.4756765,11 21,11 L22,11 C22.5522847,11 23,10.5522847 23,10 L23,7 C23,5.34314575 21.6568542,4 20,4 Z M4,6 L20,6 C20.5522847,6 21,6.44771525 21,7 L21,9 C19.4263275,9 18.1234087,10.2155344 18.0081962,11.7771604 L18.0006747,11.9632725 C18,13.5736725 19.2155344,14.8765913 20.7771604,14.9918038 L21,14.999 L21,17 C21,17.5522847 20.5522847,18 20,18 L4,18 L3.88337887,17.9932723 C3.38604019,17.9355072 3,17.5128358 3,17 L3,15 C4.57367247,15 5.87659127,13.7844656 5.99180378,12.2228396 L5.99932532,12.0367275 C6,10.4263275 4.78446558,9.12340873 3.22283965,9.00819622 L3,9 L3,7 C3,6.44771525 3.44771525,6 4,6 Z"/>
</svg>

<svg xmlns="http://www.w3.org/2000/svg" viewBox="0 0 24 24">
  <path d="M20 4H4a3 3 0 0 0-3 3v3a1 1 0 0 0 1 1h1.11A1 1 0 0 1 4 12v.11A1 1 0 0 1 3 13H2a1 1 0 0 0-1 1v3a3 3 0 0 0 3 3h16a3 3 0 0 0 3-3v-3a1 1 0 0 0-1-1h-1.11a1 1 0 0 1-.89-1v-.11a1 1 0 0 1 1-.89h1a1 1 0 0 0 1-1V7a3 3 0 0 0-3-3zM4 6h16a1 1 0 0 1 1 1v2a3 3 0 0 0-3 2.78v.18A3 3 0 0 0 20.78 15H21v2a1 1 0 0 1-1 1H3.88A1 1 0 0 1 3 17v-2a3 3 0 0 0 3-2.78v-.18A3 3 0 0 0 3.22 9H3V7a1 1 0 0 1 1-1z"/>
</svg>
